outputs/icons/general/eye_preview_round.svg

<svg xmlns="http://www.w3.org/2000/svg" width="1200" height="1200" fill="none"><path fill="#000" d="M950 150H250c-55.5 0-100 45-100 100v700c0 55 44.5 100 100 100h700c55 0 100-45 100-100V250c0-55-44.5-100-100-100m0 800H250V350h700zM675 650c0 41.5-33.5 75-75 75s-75-33.5-75-75 33.5-75 75-75 75 33.5 75 75m-75-200c-136.5 0-253 83-300 200 47 117 163.5 200 300 200s253-83 300-200c-47-117-163.5-200-300-200m0 325c-69 0-125-56-125-125s56-125 125-125 125 56 125 125-56 125-125 125"/></svg>

<svg width="1200" height="1200" viewBox="0 0 1200 1200" fill="none" xmlns="http://www.w3.org/2000/svg"><path d="M950 150H250C194.5 150 150 195 150 250V950C150 1005 194.5 1050 250 1050H950C1005 1050 1050 1005 1050 950V250C1050 195 1005.5 150 950 150ZM950 950H250V350H950V950ZM675 650C675 691.5 641.5 725 600 725C558.5 725 525 691.5 525 650C525 608.5 558.5 575 600 575C641.5 575 675 608.5 675 650ZM600 450C463.5 450 347 533 300 650C347 767 463.5 850 600 850C736.5 850 853 767 900 650C853 533 736.5 450 600 450ZM600 775C531 775 475 719 475 650C475 581 531 525 600 525C669 525 725 581 725 650C725 719 669 775 600 775Z" fill="black"/></svg>
